**kern	**kern	**dynam
*part1	*part1	*part1
*staff2	*staff1	*
*I"Piano	*	*
*clefF4	*clefF4	*
*k[f#]	*k[f#]	*
=1	=1	=1
*^	*^	*
!	!	!	!	!LO:DY:a
(4AA	2.EE	[2.e	8cL	>
.	.	.	8E	.
4GG	.	.	8B	.
.	.	.	8E	.
4FF#)	.	.	8A	.
.	.	.	8EJ	.
*v	*v	*	*	*
=	=	=	=
2EE 2BB	2.e]	8GL	.
.	.	8E	.
.	.	8G	.
.	.	8E	.
4r	.	8G	.
.	.	8EJ	.
*	*v	*v	*
=	=	=
2EE 2BB	8GL	.
.	8E	.
.	8G	.
.	8E	.
4r	8G	]]
.	8EJ	.
=	=	=
!	!	!LO:DY:a
[2.EE [2.BB	8GL	<
.	8E	.
.	8G	.
.	8E	.
.	8G	.
.	8EJ	.
=	=	=
4EE] 4BB]	8BL	.
.	8G	.
4r	8B	.
.	8G	.
4r	8B	[[
.	8GJ	.
=:|!	=:|!	=:|!
[2.EE [2.BB	[2.E [2.G	.
=	=	=
2EE] 2BB]	2E] 2G]	.
4r	4r	.
==	==	==
*-	*-	*-
!!!system-decoration: {(s1,s2)}
